packages/core/src/svgs/smt.svg

<svg width="24" height="24" viewBox="0 0 24 24" fill="none" xmlns="http://www.w3.org/2000/svg">
<g clip-path="url(#clip0_31_18911)">
<path d="M0 0H24V24H0V0Z" fill="url(#paint0_linear_31_18911)"/>
<path d="M6.53136 9.39021L12.0556 5.14307L17.5928 9.39021L19.7142 16.2302L14.2285 12.4159L12.0385 18.8574L9.82707 12.4159L4.28564 16.2302L6.53136 9.39021Z" fill="white"/>
<path d="M6.97723 9.74996L11.6615 6.13281L9.6858 11.82L5.34009 14.8457L6.97723 9.74996ZM17.1001 9.74996L12.4115 6.13281L14.3872 11.82L18.7329 14.8457L17.0958 9.74996H17.1001ZM10.2729 11.5714L12.0729 6.8571L13.7315 11.5714H10.2729ZM10.2729 12.4285L12.0729 17.1428L13.7315 12.4285H10.2729Z" fill="#131619"/>
</g>
<defs>
<linearGradient id="paint0_linear_31_18911" x1="4.46571" y1="4.16143" x2="29.2071" y2="32.58" gradientUnits="userSpaceOnUse">
<stop stop-color="#1A1E21"/>
<stop offset="1" stop-color="#06060A"/>
</linearGradient>
<clipPath id="clip0_31_18911">
<rect width="24" height="24" fill="white"/>
</clipPath>
</defs>
</svg>

<svg xmlns="http://www.w3.org/2000/svg" width="24" height="24" fill="none" viewBox="0 0 24 24"><g clip-path="url(#a)"><path fill="url(#b)" d="M0 0h24v24H0z"/><path fill="#fff" d="m6.531 9.39 5.525-4.247 5.537 4.247 2.121 6.84-5.485-3.814-2.19 6.441-2.212-6.441-5.541 3.814z"/><path fill="#131619" d="m6.977 9.75 4.685-3.617-1.976 5.687-4.346 3.026zm10.123 0-4.689-3.617 1.976 5.687 4.346 3.026-1.637-5.096zm-6.827 1.821 1.8-4.714 1.659 4.714zm0 .857 1.8 4.715 1.659-4.715z"/></g><defs><linearGradient id="b" x1="4.466" x2="29.207" y1="4.161" y2="32.58" gradientUnits="userSpaceOnUse"><stop stop-color="#1A1E21"/><stop offset="1" stop-color="#06060A"/></linearGradient><clipPath id="a"><path fill="#fff" d="M0 0h24v24H0z"/></clipPath></defs></svg>
